assets/icons/action/new_custom40.svg

<?xml version="1.0"?><svg xmlns="http://www.w3.org/2000/svg" width="52" height="52" viewBox="0 0 52 52"><g fill="#fff"><path d="m45.2 8h-38.4c-2.6 0-4.8 2.1-4.8 4.7v26.6c0 2.6 2.2 4.7 4.8 4.7h38.4c2.6 0 4.8-2.1 4.8-4.7v-26.6c0-2.6-2.2-4.7-4.8-4.7z m0 4.7v4.7h-38.4v-4.7h38.4z m-38.4 26.6v-14.1h38.4v14.1h-38.4z m13.7-10.2c-1.1 0-2.1 0.5-2.6 1.4-0.1 0.2-0.3 0.2-0.4 0-0.6-0.9-1.5-1.4-2.6-1.4-1.8 0-3.2 1.4-3.2 3.1 0 1.7 1.4 3.1 3.2 3.1 1.1 0 2.1-0.5 2.6-1.4 0.1-0.2 0.3-0.2 0.4 0 0.6 0.9 1.5 1.4 2.6 1.4h0.1c1.7 0 3.1-1.3 3.1-3.1v-0.2c-0.1-1.5-1.5-2.9-3.2-2.9z m18.3 0.8h-9.6c-0.9 0-1.6 0.7-1.6 1.6v1.5c0 0.9 0.7 1.6 1.6 1.6h9.6c0.9 0 1.6-0.7 1.6-1.6v-1.6c0-0.8-0.7-1.5-1.6-1.5z"></path></g></svg>

<svg xmlns="http://www.w3.org/2000/svg" x="0px" y="0px"
	 width="52px" height="52px" viewBox="0 0 52 52" enable-background="new 0 0 52 52" xml:space="preserve">
<g>
	<path fill="#FFFFFF" d="M45.2,8H6.8C4.2,8,2,10.1,2,12.7v26.6C2,41.9,4.2,44,6.8,44h38.4c2.6,0,4.8-2.1,4.8-4.7V12.7
		C50,10.1,47.8,8,45.2,8z M45.2,12.7v4.7H6.8v-4.7H45.2z M6.8,39.3V25.2h38.4v14.1H6.8z"/>
	<path fill="#FFFFFF" d="M20.5,29.1L20.5,29.1c-1.1,0-2.1,0.5-2.6,1.4c-0.1,0.2-0.3,0.2-0.4,0c-0.6-0.9-1.5-1.4-2.6-1.4l0,0
		c-1.8,0-3.2,1.4-3.2,3.1l0,0c0,1.7,1.4,3.1,3.2,3.1l0,0c1.1,0,2.1-0.5,2.6-1.4c0.1-0.2,0.3-0.2,0.4,0c0.6,0.9,1.5,1.4,2.6,1.4h0.1
		c1.7,0,3.1-1.3,3.1-3.1v-0.2C23.6,30.5,22.2,29.1,20.5,29.1z"/>
	<path fill="#FFFFFF" d="M38.8,29.9h-9.6c-0.9,0-1.6,0.7-1.6,1.6V33c0,0.9,0.7,1.6,1.6,1.6h9.6c0.9,0,1.6-0.7,1.6-1.6v-1.6
		C40.4,30.6,39.7,29.9,38.8,29.9z"/>
</g>
</svg>
